X:1
T: Marquis of Queensberry
C:
R:Reel
Q: 232
K:C
M:4/4
L:1/8
|:f|ec c1/2c1/2c c2 ec|fe dc Ba gf|ec c1/2c1/2c c2 ac|BG AB c3f|
ec c1/2c1/2c c2 ec|fe dc Ba gf|ec c1/2c1/2c c2 ac|BG AB c3G|
EF GE FG Ac|Bc dB cd eg|af af ge dc|BG AB cA GE|
EF GE FG Ac|Bc dB cd eg|af af ge dc|BG AB c3:|
